inst/assets/svg/wi-night-alt-sleet-storm.svg

<?xml version="1.0" encoding="UTF-8"?>
<svg xmlns="http://www.w3.org/2000/svg" xmlns:xlink="http://www.w3.org/1999/xlink" width="30pt" height="30pt" viewBox="0 0 30 30" version="1.1">
<g id="surface656">
<path style=" stroke:none;fill-rule:nonzero;fill:rgb(0%,0%,0%);fill-opacity:1;" d="M 4.089844 16.890625 C 4.089844 18 4.421875 18.988281 5.078125 19.859375 C 5.738281 20.730469 6.601563 21.328125 7.660156 21.648438 L 7.011719 23.351563 C 6.96875 23.488281 7.011719 23.558594 7.148438 23.558594 L 9.269531 23.558594 L 7.980469 27.738281 L 8.261719 27.738281 L 12.488281 22.121094 C 12.53125 22.078125 12.53125 22.03125 12.511719 21.980469 C 12.480469 21.929688 12.441406 21.910156 12.371094 21.910156 L 10.191406 21.910156 L 12.660156 17.269531 C 12.730469 17.128906 12.691406 17.050781 12.53125 17.050781 L 9.570313 17.050781 C 9.480469 17.050781 9.410156 17.101563 9.351563 17.199219 L 8.28125 20.078125 C 7.570313 19.898438 6.980469 19.511719 6.5 18.910156 C 6.019531 18.308594 5.789063 17.640625 5.789063 16.898438 C 5.789063 16.070313 6.070313 15.351563 6.640625 14.730469 C 7.210938 14.121094 7.910156 13.761719 8.738281 13.660156 L 9.269531 13.589844 C 9.398438 13.589844 9.46875 13.53125 9.46875 13.410156 L 9.539063 12.898438 C 9.648438 11.820313 10.101563 10.910156 10.910156 10.179688 C 11.71875 9.449219 12.671875 9.078125 13.761719 9.078125 C 14.851563 9.078125 15.800781 9.449219 16.621094 10.179688 C 17.441406 10.910156 17.898438 11.820313 18.019531 12.890625 L 18.089844 13.460938 C 18.089844 13.578125 18.148438 13.648438 18.261719 13.648438 L 19.878906 13.648438 C 20.789063 13.648438 21.558594 13.96875 22.210938 14.601563 C 22.859375 15.230469 23.179688 16 23.179688 16.878906 C 23.179688 17.730469 22.878906 18.46875 22.28125 19.089844 C 21.679688 19.710938 20.949219 20.058594 20.078125 20.121094 C 19.960938 20.121094 19.890625 20.179688 19.890625 20.308594 L 19.890625 21.671875 C 19.890625 21.789063 19.949219 21.851563 20.078125 21.851563 C 21.410156 21.808594 22.539063 21.300781 23.46875 20.339844 C 24.398438 19.371094 24.859375 18.21875 24.859375 16.890625 C 24.859375 16.019531 24.640625 15.210938 24.199219 14.441406 C 24.960938 13.699219 25.46875 12.828125 25.710938 11.820313 L 25.898438 11.140625 C 25.910156 11.128906 25.910156 11.109375 25.910156 11.070313 C 25.910156 10.988281 25.859375 10.941406 25.761719 10.910156 L 25.140625 10.738281 C 24.570313 10.570313 24.078125 10.289063 23.679688 9.898438 C 23.28125 9.511719 23 9.101563 22.828125 8.679688 C 22.660156 8.261719 22.578125 7.839844 22.589844 7.421875 C 22.589844 7.140625 22.621094 6.859375 22.691406 6.570313 L 22.800781 5.960938 C 22.820313 5.859375 22.78125 5.78125 22.660156 5.730469 L 21.859375 5.488281 C 21.390625 5.398438 20.980469 5.351563 20.621094 5.351563 C 20.25 5.339844 19.871094 5.378906 19.488281 5.46875 C 19.109375 5.550781 18.710938 5.691406 18.300781 5.871094 C 17.890625 6.050781 17.5 6.320313 17.121094 6.660156 C 16.738281 7 16.410156 7.398438 16.128906 7.859375 C 15.300781 7.550781 14.511719 7.398438 13.769531 7.398438 C 12.359375 7.398438 11.101563 7.839844 10.011719 8.71875 C 8.921875 9.601563 8.210938 10.71875 7.898438 12.078125 C 6.789063 12.339844 5.878906 12.921875 5.160156 13.820313 C 4.449219 14.710938 4.089844 15.738281 4.089844 16.890625 Z M 11.96875 27.101563 C 11.96875 27.269531 12.019531 27.429688 12.128906 27.589844 C 12.238281 27.75 12.398438 27.859375 12.621094 27.921875 C 12.710938 27.941406 12.789063 27.949219 12.859375 27.949219 C 13.289063 27.949219 13.558594 27.75 13.660156 27.339844 L 13.789063 26.75 C 13.851563 26.488281 13.820313 26.269531 13.710938 26.070313 C 13.589844 25.871094 13.421875 25.75 13.179688 25.699219 C 12.96875 25.628906 12.761719 25.648438 12.550781 25.769531 C 12.339844 25.890625 12.210938 26.058594 12.140625 26.28125 L 12.011719 26.871094 C 11.980469 26.988281 11.96875 27.070313 11.96875 27.101563 Z M 12.761719 24.199219 C 12.761719 24.429688 12.839844 24.621094 13 24.78125 C 13.160156 24.941406 13.359375 25.019531 13.578125 25.019531 C 13.820313 25.019531 14.011719 24.941406 14.171875 24.789063 C 14.328125 24.628906 14.398438 24.441406 14.398438 24.199219 C 14.398438 23.96875 14.320313 23.78125 14.171875 23.621094 C 14.011719 23.460938 13.820313 23.390625 13.578125 23.390625 C 13.339844 23.390625 13.148438 23.46875 12.988281 23.621094 C 12.839844 23.769531 12.761719 23.96875 12.761719 24.199219 Z M 13.378906 21.929688 C 13.371094 22.078125 13.410156 22.238281 13.519531 22.398438 C 13.621094 22.558594 13.769531 22.660156 13.96875 22.699219 C 14.199219 22.761719 14.410156 22.738281 14.609375 22.640625 C 14.808594 22.539063 14.941406 22.351563 15.019531 22.078125 L 15.28125 21.179688 C 15.351563 20.960938 15.328125 20.75 15.210938 20.550781 C 15.089844 20.351563 14.921875 20.21875 14.679688 20.148438 C 14.460938 20.078125 14.25 20.109375 14.039063 20.230469 C 13.828125 20.351563 13.699219 20.53125 13.628906 20.761719 L 13.398438 21.660156 C 13.390625 21.738281 13.378906 21.828125 13.378906 21.929688 Z M 16.140625 24.078125 C 16.140625 24.25 16.191406 24.410156 16.289063 24.558594 C 16.390625 24.710938 16.539063 24.820313 16.75 24.878906 C 16.78125 24.878906 16.828125 24.890625 16.890625 24.898438 C 16.949219 24.910156 17 24.921875 17.03125 24.921875 C 17.441406 24.921875 17.691406 24.699219 17.789063 24.261719 L 17.929688 23.660156 C 18 23.449219 17.980469 23.238281 17.859375 23.03125 C 17.738281 22.820313 17.570313 22.691406 17.351563 22.621094 C 17.101563 22.558594 16.871094 22.578125 16.671875 22.699219 C 16.46875 22.820313 16.328125 22.988281 16.261719 23.230469 L 16.171875 23.820313 C 16.171875 23.828125 16.171875 23.871094 16.160156 23.929688 C 16.148438 24 16.140625 24.039063 16.140625 24.078125 Z M 16.878906 21.121094 C 16.878906 21.351563 16.960938 21.539063 17.121094 21.691406 C 17.269531 21.851563 17.460938 21.929688 17.699219 21.929688 C 17.941406 21.929688 18.128906 21.851563 18.289063 21.699219 C 18.449219 21.539063 18.519531 21.351563 18.519531 21.121094 C 18.519531 20.878906 18.441406 20.691406 18.289063 20.53125 C 18.128906 20.371094 17.941406 20.300781 17.699219 20.300781 C 17.460938 20.300781 17.269531 20.378906 17.109375 20.53125 C 16.949219 20.679688 16.878906 20.878906 16.878906 21.121094 Z M 17.589844 8.769531 C 17.921875 8.210938 18.371094 7.78125 18.929688 7.480469 C 19.488281 7.179688 20.078125 7.03125 20.691406 7.03125 L 20.910156 7.03125 L 20.910156 7.351563 C 20.910156 7.988281 21.019531 8.609375 21.25 9.210938 C 21.480469 9.808594 21.808594 10.359375 22.269531 10.871094 C 22.71875 11.378906 23.261719 11.78125 23.878906 12.078125 C 23.710938 12.460938 23.460938 12.800781 23.121094 13.109375 C 22.210938 12.328125 21.140625 11.941406 19.898438 11.941406 L 19.570313 11.941406 C 19.28125 10.679688 18.621094 9.621094 17.589844 8.769531 Z M 17.589844 8.769531 "/>
</g>
</svg>

<?xml version="1.0" encoding="utf-8"?>
<!-- Generator: Adobe Illustrator 22.0.1, SVG Export Plug-In . SVG Version: 6.00 Build 0)  -->
<svg version="1.1" id="Layer_1" xmlns="http://www.w3.org/2000/svg" xmlns:xlink="http://www.w3.org/1999/xlink" x="0px" y="0px"
	 viewBox="0 0 30 30" style="enable-background:new 0 0 30 30;" xml:space="preserve">
<path d="M4.09,16.89c0,1.11,0.33,2.1,0.99,2.97c0.66,0.87,1.52,1.47,2.58,1.79l-0.65,1.7c-0.04,0.14,0,0.21,0.14,0.21h2.12
	l-1.29,4.18h0.28l4.23-5.62c0.04-0.04,0.04-0.09,0.02-0.14c-0.03-0.05-0.07-0.07-0.14-0.07h-2.18l2.47-4.64
	c0.07-0.14,0.03-0.22-0.13-0.22H9.57c-0.09,0-0.16,0.05-0.22,0.15l-1.07,2.88c-0.71-0.18-1.3-0.57-1.78-1.17s-0.71-1.27-0.71-2.01
	c0-0.83,0.28-1.55,0.85-2.17c0.57-0.61,1.27-0.97,2.1-1.07l0.53-0.07c0.13,0,0.2-0.06,0.2-0.18l0.07-0.51
	c0.11-1.08,0.56-1.99,1.37-2.72c0.81-0.73,1.76-1.1,2.85-1.1c1.09,0,2.04,0.37,2.86,1.1c0.82,0.73,1.28,1.64,1.4,2.71l0.07,0.57
	c0,0.12,0.06,0.19,0.17,0.19h1.62c0.91,0,1.68,0.32,2.33,0.95s0.97,1.4,0.97,2.28c0,0.85-0.3,1.59-0.9,2.21
	c-0.6,0.62-1.33,0.97-2.2,1.03c-0.12,0-0.19,0.06-0.19,0.19v1.36c0,0.12,0.06,0.18,0.19,0.18c1.33-0.04,2.46-0.55,3.39-1.51
	c0.93-0.97,1.39-2.12,1.39-3.45c0-0.87-0.22-1.68-0.66-2.45c0.76-0.74,1.27-1.61,1.51-2.62l0.19-0.68c0.01-0.01,0.01-0.03,0.01-0.07
	c0-0.08-0.05-0.13-0.15-0.16l-0.62-0.17c-0.57-0.17-1.06-0.45-1.46-0.84c-0.4-0.39-0.68-0.8-0.85-1.22s-0.25-0.84-0.24-1.26
	c0-0.28,0.03-0.56,0.1-0.85l0.11-0.61c0.02-0.1-0.02-0.18-0.14-0.23l-0.8-0.24c-0.47-0.09-0.88-0.14-1.24-0.14
	c-0.37-0.01-0.75,0.03-1.13,0.12c-0.38,0.08-0.78,0.22-1.19,0.4c-0.41,0.18-0.8,0.45-1.18,0.79c-0.38,0.34-0.71,0.74-0.99,1.2
	C15.3,7.55,14.51,7.4,13.77,7.4c-1.41,0-2.67,0.44-3.76,1.32s-1.8,2-2.11,3.36c-1.11,0.26-2.02,0.84-2.74,1.74
	C4.45,14.71,4.09,15.74,4.09,16.89z M11.97,27.1c0,0.17,0.05,0.33,0.16,0.49c0.11,0.16,0.27,0.27,0.49,0.33
	c0.09,0.02,0.17,0.03,0.24,0.03c0.43,0,0.7-0.2,0.8-0.61l0.13-0.59c0.06-0.26,0.03-0.48-0.08-0.68c-0.12-0.2-0.29-0.32-0.53-0.37
	c-0.21-0.07-0.42-0.05-0.63,0.07c-0.21,0.12-0.34,0.29-0.41,0.51l-0.13,0.59C11.98,26.99,11.97,27.07,11.97,27.1z M12.76,24.2
	c0,0.23,0.08,0.42,0.24,0.58c0.16,0.16,0.36,0.24,0.58,0.24c0.24,0,0.43-0.08,0.59-0.23c0.16-0.16,0.23-0.35,0.23-0.59
	c0-0.23-0.08-0.42-0.23-0.58c-0.16-0.16-0.35-0.23-0.59-0.23s-0.43,0.08-0.59,0.23C12.84,23.77,12.76,23.97,12.76,24.2z
	 M13.38,21.93c-0.01,0.15,0.03,0.31,0.14,0.47c0.1,0.16,0.25,0.26,0.45,0.3c0.23,0.06,0.44,0.04,0.64-0.06s0.33-0.29,0.41-0.56
	l0.26-0.9c0.07-0.22,0.05-0.43-0.07-0.63c-0.12-0.2-0.29-0.33-0.53-0.4c-0.22-0.07-0.43-0.04-0.64,0.08s-0.34,0.3-0.41,0.53
	l-0.23,0.9C13.39,21.74,13.38,21.83,13.38,21.93z M16.14,24.08c0,0.17,0.05,0.33,0.15,0.48c0.1,0.15,0.25,0.26,0.46,0.32
	c0.03,0,0.08,0.01,0.14,0.02c0.06,0.01,0.11,0.02,0.14,0.02c0.41,0,0.66-0.22,0.76-0.66l0.14-0.6c0.07-0.21,0.05-0.42-0.07-0.63
	c-0.12-0.21-0.29-0.34-0.51-0.41c-0.25-0.06-0.48-0.04-0.68,0.08s-0.34,0.29-0.41,0.53l-0.09,0.59c0,0.01,0,0.05-0.01,0.11
	C16.15,24,16.14,24.04,16.14,24.08z M16.88,21.12c0,0.23,0.08,0.42,0.24,0.57c0.15,0.16,0.34,0.24,0.58,0.24
	c0.24,0,0.43-0.08,0.59-0.23c0.16-0.16,0.23-0.35,0.23-0.58c0-0.24-0.08-0.43-0.23-0.59c-0.16-0.16-0.35-0.23-0.59-0.23
	c-0.24,0-0.43,0.08-0.59,0.23S16.88,20.88,16.88,21.12z M17.59,8.77c0.33-0.56,0.78-0.99,1.34-1.29s1.15-0.45,1.76-0.45h0.22v0.32
	c0,0.64,0.11,1.26,0.34,1.86c0.23,0.6,0.56,1.15,1.02,1.66c0.45,0.51,0.99,0.91,1.61,1.21c-0.17,0.38-0.42,0.72-0.76,1.03
	c-0.91-0.78-1.98-1.17-3.22-1.17h-0.33C19.28,10.68,18.62,9.62,17.59,8.77z"/>
</svg>
